X:1
T:Grace (Bevan), LM
T:Grace (Bevan), LM
T:Frederick Bevan (1856-1939)
T:Public Domain Courtesy of the Cyber Hymnal™
C:Frederick Bevan (1856-1939)
Z:Public Domain
Z:Courtesy of the Cyber Hymnal™
%%score ( 1 2 ) ( 3 4 )
L:1/8
Q:1/4=103
M:4/4
K:D
V:1 treble 
V:2 treble 
V:3 bass 
V:4 bass 
V:1
 [DF]2 [EA][EA] [DG]2 [DF]2 | [CF]2 [CE]2 [DA]4 | z [Fd][Fc][GB] [DA]2 [DF]2 | [DF]2 [DE]2 [CE]4 | %4
 [DF]2 [=CA][CA] [^CG]2 [CB]2 | [DA]2 [F^A]2 [GB]4 | z [CE][CE][CE] [DA]2 [DF]2 | [DF]2 [CE]2 D4 |] %8
V:2
 x8 | x8 | x8 | x8 | x8 | x8 | x8 | x4 D4 |] %8
V:3
 [D,A,]2 [D,C][D,C] [D,B,]2 [D,A,]2 | [G,A,]2 [G,A,]2 [F,A,]4 | z B,[A,D][G,D] [F,D]2 [D,A,]2 | %3
 [B,,A,]2 [E,^G,]2 [A,,A,]4 | [D,A,]2 [^D,A,][D,A,] [E,A,]2 [G,A,]2 | [F,A,]2 (D=C) [G,,B,]4 | %6
 z [G,A,][G,A,][G,A,] [F,A,]2 [F,,A,]2 | [G,,B,]2 [A,,G,]2 [D,F,]4 |] %8
V:4
 x8 | x8 | x B, x6 | x8 | x8 | x2 D,2 x4 | x8 | x8 |] %8

